sticker-outline.svg

<svg fill="currentColor" viewBox="0 0 24 24"><path d="M5.5 2C3.6 2 2 3.6 2 5.5v13C2 20.4 3.6 22 5.5 22H16l6-6V5.5C22 3.6 20.4 2 18.5 2zm.3 2h12.5c1 0 1.8.8 1.8 1.8V15h-1.5c-1.9 0-3.5 1.6-3.5 3.5V20H5.8c-1 0-1.8-.8-1.8-1.8V5.8C4 4.8 4.8 4 5.8 4"/></svg>

<svg  viewBox="0 0 24 24" fill="currentColor"><path  d="M5.5 2C3.6 2 2 3.6 2 5.5V18.5C2 20.4 3.6 22 5.5 22H16L22 16V5.5C22 3.6 20.4 2 18.5 2H5.5M5.8 4H18.3C19.3 4 20.1 4.8 20.1 5.8V15H18.6C16.7 15 15.1 16.6 15.1 18.5V20H5.8C4.8 20 4 19.2 4 18.2V5.8C4 4.8 4.8 4 5.8 4"/></svg>
